img/buyitback/money.svg

<svg width="24" height="24" viewBox="0 0 24 24" fill="none" xmlns="http://www.w3.org/2000/svg">
<path fill-rule="evenodd" clip-rule="evenodd" d="M14.5 7.5C14.5 8.88071 13.3807 10 12 10C10.6193 10 9.5 8.88071 9.5 7.5C9.5 6.11929 10.6193 5 12 5C13.3807 5 14.5 6.11929 14.5 7.5ZM13 7.5C13 8.05229 12.5523 8.5 12 8.5C11.4477 8.5 11 8.05229 11 7.5C11 6.94772 11.4477 6.5 12 6.5C12.5523 6.5 13 6.94772 13 7.5Z" fill="#2A179C"/>
<path fill-rule="evenodd" clip-rule="evenodd" d="M4 2C2.89543 2 2 2.89543 2 4V11C2 12.1046 2.89543 13 4 13H20C21.1046 13 22 12.1046 22 11V4C22 2.89543 21.1046 2 20 2H4ZM20.5 4C20.5 3.72386 20.2761 3.5 20 3.5H4C3.72386 3.5 3.5 3.72386 3.5 4V11C3.5 11.2761 3.72386 11.5 4 11.5H20C20.2761 11.5 20.5 11.2761 20.5 11V4Z" fill="#2A179C"/>
<path d="M22 21C22 21.4142 21.6642 21.75 21.25 21.75H2.75C2.33579 21.75 2 21.4142 2 21C2 20.5858 2.33579 20.25 2.75 20.25H21.25C21.6642 20.25 22 20.5858 22 21Z" fill="#2A179C"/>
<path d="M22 16.5C22 16.9142 21.6642 17.25 21.25 17.25H2.75C2.33579 17.25 2 16.9142 2 16.5C2 16.0858 2.33579 15.75 2.75 15.75H21.25C21.6642 15.75 22 16.0858 22 16.5Z" fill="#2A179C"/>
</svg>

<svg width="24" height="24" fill="none" xmlns="http://www.w3.org/2000/svg"><path fill-rule="evenodd" clip-rule="evenodd" d="M14.5 7.5a2.5 2.5 0 1 1-5 0 2.5 2.5 0 0 1 5 0Zm-1.5 0a1 1 0 1 1-2 0 1 1 0 0 1 2 0Z" fill="#2A179C"/><path fill-rule="evenodd" clip-rule="evenodd" d="M4 2a2 2 0 0 0-2 2v7a2 2 0 0 0 2 2h16a2 2 0 0 0 2-2V4a2 2 0 0 0-2-2H4Zm16.5 2a.5.5 0 0 0-.5-.5H4a.5.5 0 0 0-.5.5v7a.5.5 0 0 0 .5.5h16a.5.5 0 0 0 .5-.5V4Z" fill="#2A179C"/><path d="M22 21a.75.75 0 0 1-.75.75H2.75a.75.75 0 0 1 0-1.5h18.5A.75.75 0 0 1 22 21Zm0-4.5a.75.75 0 0 1-.75.75H2.75a.75.75 0 0 1 0-1.5h18.5a.75.75 0 0 1 .75.75Z" fill="#2A179C"/></svg>
